html-practice-pages/web-app-images/profile.svg

<svg xmlns="http://www.w3.org/2000/svg" viewBox="0 0 640 640"><!--!Font Awesome Free 7.2.0 by @fontawesome - https://fontawesome.com License - https://fontawesome.com/license/free Copyright 2026 Fonticons, Inc.--><path d="M470.5 463.6c-19.1-46.7-65-79.6-118.5-79.6h-64c-53.5 0-99.4 32.9-118.5 79.6C133.9 426.3 112 375.7 112 320c0-114.9 93.1-208 208-208s208 93.1 208 208c0 55.7-21.9 106.2-57.5 143.6zm-40.1 32.7c-32 20.1-69.8 31.7-110.4 31.7-40.6 0-78.4-11.6-110.5-31.7 7.3-36.7 39.7-64.3 78.5-64.3h64c38.8 0 71.2 27.6 78.5 64.3zM320 576c141.4 0 256-114.6 256-256S461.4 64 320 64 64 178.6 64 320s114.6 256 256 256zm0-272c-22.1 0-40-17.9-40-40s17.9-40 40-40 40 17.9 40 40-17.9 40-40 40zm-88-40c0 48.6 39.4 88 88 88s88-39.4 88-88-39.4-88-88-88-88 39.4-88 88z"/></svg>

<svg xmlns="http://www.w3.org/2000/svg" viewBox="0 0 640 640"><!--!Font Awesome Free 7.2.0 by @fontawesome - https://fontawesome.com License - https://fontawesome.com/license/free Copyright 2026 Fonticons, Inc.--><path d="M470.5 463.6C451.4 416.9 405.5 384 352 384L288 384C234.5 384 188.6 416.9 169.5 463.6C133.9 426.3 112 375.7 112 320C112 205.1 205.1 112 320 112C434.9 112 528 205.1 528 320C528 375.7 506.1 426.2 470.5 463.6zM430.4 496.3C398.4 516.4 360.6 528 320 528C279.4 528 241.6 516.4 209.5 496.3C216.8 459.6 249.2 432 288 432L352 432C390.8 432 423.2 459.6 430.5 496.3zM320 576C461.4 576 576 461.4 576 320C576 178.6 461.4 64 320 64C178.6 64 64 178.6 64 320C64 461.4 178.6 576 320 576zM320 304C297.9 304 280 286.1 280 264C280 241.9 297.9 224 320 224C342.1 224 360 241.9 360 264C360 286.1 342.1 304 320 304zM232 264C232 312.6 271.4 352 320 352C368.6 352 408 312.6 408 264C408 215.4 368.6 176 320 176C271.4 176 232 215.4 232 264z"/></svg>
